icons/nextflow.svg

<?xml version="1.0" encoding="UTF-8" standalone="no"?>
<svg
   width="251"
   height="251"
   viewBox="0 0 251 251"
   fill="none"
   version="1.1"
   id="svg317"
   sodipodi:docname="nextflow.svg"
   inkscape:version="1.2 (dc2aeda, 2022-05-15)"
   xmlns:inkscape="http://www.inkscape.org/namespaces/inkscape"
   xmlns:sodipodi="http://sodipodi.sourceforge.net/DTD/sodipodi-0.dtd"
   xmlns="http://www.w3.org/2000/svg"
   xmlns:svg="http://www.w3.org/2000/svg">
  <defs
     id="defs321" />
  <sodipodi:namedview
     id="namedview319"
     pagecolor="#ffffff"
     bordercolor="#000000"
     borderopacity="0.25"
     inkscape:showpageshadow="2"
     inkscape:pageopacity="0.0"
     inkscape:pagecheckerboard="0"
     inkscape:deskcolor="#d1d1d1"
     showgrid="false"
     inkscape:zoom="1.8156104"
     inkscape:cx="61.962633"
     inkscape:cy="135.49162"
     inkscape:window-width="1401"
     inkscape:window-height="906"
     inkscape:window-x="1959"
     inkscape:window-y="0"
     inkscape:window-maximized="0"
     inkscape:current-layer="svg317" />
  <path
     d="M0 47.0195C39.45 49.6394 71.06 81.3272 73.54 120.815H119.61C117.05 55.8589 64.93 3.64245 0 0.942627V47.0195Z"
     fill="#0DC09D"
     id="path309"
     style="fill:#ffffff;fill-opacity:1" />
  <path
     d="M73.8 131.324C71.18 170.771 39.49 202.379 0 204.859V250.926C64.96 248.366 117.18 196.249 119.88 131.324H73.8Z"
     fill="#0DC09D"
     id="path311"
     style="fill:#ffffff;fill-opacity:1" />
  <path
     d="M176.201 120.545C178.821 81.0972 210.511 49.4894 250.001 47.0095V0.942627C185.041 3.50245 132.821 55.619 130.121 120.545H176.201Z"
     fill="#0DC09D"
     id="path313"
     style="fill:#ffffff;fill-opacity:1" />
  <path
     d="M250.001 204.849C210.551 202.229 178.941 170.542 176.461 131.054H130.391C132.951 196.01 185.071 248.226 250.001 250.926V204.849Z"
     fill="#0DC09D"
     id="path315"
     style="fill:#ffffff;fill-opacity:1" />
</svg>

<svg xmlns="http://www.w3.org/2000/svg" width="251" height="251" fill="none"><path fill="#0DC09D" d="M0 47.02c39.45 2.62 71.06 34.307 73.54 73.795h46.07C117.05 55.859 64.93 3.642 0 .943V47.02ZM73.8 131.324c-2.62 39.447-34.31 71.055-73.8 73.535v46.067c64.96-2.56 117.18-54.677 119.88-119.602H73.8ZM176.201 120.545c2.62-39.448 34.31-71.056 73.8-73.535V.943c-64.96 2.56-117.18 54.676-119.88 119.602h46.08ZM250.001 204.849c-39.45-2.62-71.06-34.307-73.54-73.795h-46.07c2.56 64.956 54.68 117.172 119.61 119.872v-46.077Z" style="fill:#fff;fill-opacity:1"/></svg>
